X: 13573
T: Flying Circus
R: slip jig
M: 9/8
K: Fmajor
|:A3 AFG Afe|d3 {f}dcA cAF|GG/G/G GFD CDF|BAF CD/E/F GAB:|
cc/c/c dcB AGF|E2 cc GF EDC|D2 B BAB GFD|CFE GFA GAB|
cc/c/c dcB AGF|E2 cc GF EDC|D2 B BAB GFD|C2 A GFC DFA||
G3 GFD FGA|B3 AGF GAc|d3 dcA cAF|G3 GFD CD/E/F|
G3 GFD FGA|B3 AGF GAc|d3 dcA cAF|GBA CDF GAB||

